X:1
T:Aus tiefer Not (mel.1, 4vv-2, XLV)
T:Michael Praetorius
T:Aus tiefer Not (mel.1, 4vv-2, XLV)
C:Michael Praetorius
%%score [ 1 2 3 4 ]
L:1/8
Q:1/4=120
M:4/2
K:C
V:1 treble nm="Soprano" snm="S"
V:2 treble nm="Alto" snm="A"
V:3 treble-8 nm="Tenor" snm="T"
V:4 bass nm="Bass" snm="B"
V:1
 B8 E4 B4 | c4 B4 G4 A4 | B8 z4 B4 | c4 d4 c4 A4 | G4 F4 E8 :| A8 G4 c4 | B4 A2 d4 c2 B4 | %7
w: Aus tie- fer|Not schrei ich zu|dir, Herr|Gott, er- hör mein|Ru- * fen.|Denn so du|willst das se- * hen|
w: Dein gnä- dig|Oh- ren kehr zu|mir, und|mei- ner Bitt sie|öf- * fen.|||
 A8 z4 c4 | B4 c4 d4 G4 | c4 A4 G8 | z4 G4 c4 B4 | A4 E4 G4 F4 | E16 |] %13
w: an, was|Sünd und Un- recht|ist ge- tan,|wer kann, Herr,|vor dir blei- *|ben?|
w: ||||||
V:2
 E8 E4 E4 | E4 G4 E4 D2 C2 | E8 z4 E4 | E4 G4 E4 F4 | E4 D4 ^C8 :| z4 F4 E4 E4 | E4 F2 G4 E2 E4 | %7
w: Aus tie- fer|Not schrei ich zu _|dir, Herr|Gott, er- hör mein|Ru- * fen.|Denn so du|willst das se- * hen|
w: Dein gnä- dig|Oh- ren kehr zu _|mir, und|mei- ner Bitt sie|öf- * fen.|||
 E8 z4 E4 | G4 G4 G4 E4 | E4 ^F4 G8 | z4 E4 E4 E4 | C4 C4 D8 | B,16 |] %13
w: an, was|Sünd und Un- recht|ist ge- tan,|wer kann, Herr,|vor dir blei-|ben?|
w: ||||||
V:3
 B8 c4 B4 | A4 B4 B4 A4 | ^G8 z4 =G4 | A4 G4 G4 A4 | c4 A4 A8 :| z4 d4 B4 A4 | G4 c2 B4 A4 ^G2 | %7
w: Aus tie- fer|Not schrei ich zu|dir, Herr|Gott, er- hör mein|Ru- * fen.|Denn so du|willst das se- * hen|
w: Dein gnä- dig|Oh- ren kehr zu|mir, und|mei- ner Bitt sie|öf- * fen.|||
 A8 z4 A4 | d4 e4 d4 c2 G2 | A8 B8 | z4 c6 A4 G2 | A4 G4 B4 A4 | ^G16 |] %13
w: an, was|Sünd und Un- recht ist|ge- tan,|wer kann, Herr,|vor dir blei- *|ben?|
w: ||||||
V:4
 E,8 A,4 ^G,4 | A,4 E,4 E,4 F,4 | E,8 z4 E,4 | A,,4 B,,4 C,4 F,4 | C,4 D,4 A,8 :| z4 D,4 E,4 A,4 | %6
w: Aus tie- fer|Not schrei ich zu|dir, Herr|Gott, er- hör mein|Ru- * fen.|Denn so du|
w: Dein gnä- dig|Oh- ren kehr zu|mir, und|mei- ner Bitt sie|öf- * fen.||
 E,4 A,,2 G,,4 A,,2 E,4 | A,,8 z4 A,4 | G,4 C,4 B,,4 C,4 | A,,4 D,4 G,,8 | z4 C,4 A,,4 E,4 | %11
w: willst das se- * hen|an, was|Sünd und Un- recht|ist ge- tan,|wer kann, Herr,|
w: |||||
 F,4 C,4 G,,4 D,4 | E,16 |] %13
w: vor dir blei- *|ben?|
w: ||

